Origami/24x24/apps/minetest.svg

<svg width="24" height="24" version="1.1" viewBox="0 0 24 24" xmlns="http://www.w3.org/2000/svg">
 <path d="m11.952441 10.500769c-0.331565 0.0074-0.639743 0.05578-1.002941 0.256249l-8.1611068 4.504685c-0.3634882 0.200636-0.7436916 0.579512-0.7855384 1.148437-0.041847 0.568926 0.38389 1.106423 0.7812922 1.325781l8.169599 4.509372c0.39744 0.219377 0.762054 0.261395 1.093809 0.253906 0.331755-0.0075 0.639684-0.05574 1.002942-0.256249l8.161106-4.504686c0.363222-0.20049 0.743653-0.579288 0.785539-1.148437 0.04189-0.569148-0.384112-1.106544-0.781293-1.32578l-8.169599-4.509372c-0.397261-0.219278-0.761616-0.261218-1.09296-0.253906z" style="opacity:.2"/>
 <path d="m11.952441 10.000769c-0.331565 0.0074-0.639743 0.05578-1.002941 0.256249l-8.1611068 4.504685c-0.3634882 0.200636-0.7436916 0.579512-0.7855384 1.148437-0.041847 0.568926 0.38389 1.106423 0.7812922 1.325781l8.169599 4.509372c0.39744 0.219377 0.762054 0.261395 1.093809 0.253906 0.331755-0.0075 0.639684-0.05574 1.002942-0.25625l8.161106-4.504685c0.363222-0.20049 0.743653-0.579288 0.785539-1.148437 0.04189-0.569148-0.384112-1.106544-0.781293-1.32578l-8.169599-4.509372c-0.397261-0.219278-0.761616-0.261218-1.09296-0.253906z" style="fill:#197236"/>
 <path d="m11.952149 10.000977c-0.331566 0.0074-0.639731 0.05539-1.00293 0.255859l-8.161133 4.504883c-0.3634882 0.200636-0.7433095 0.579512-0.7851563 1.148437-0.00797 0.108396 0.00578 0.214228 0.02832 0.318359 0.1002117-0.468145 0.4338007-0.788489 0.756836-0.966796l8.1611333-4.504883c0.363198-0.20047 0.671364-0.248475 1.00293-0.255859h9.99e-4c0.331344-0.0073 0.695513 0.03463 1.092774 0.253906l8.169921 4.508789c0.321506 0.177465 0.657109 0.565313 0.752929 1.007812 0.01256-0.05864 0.02366-0.1183 0.02832-0.18164 0.04189-0.569149-0.384069-1.106936-0.78125-1.326172l-8.169943-4.508789c-0.397262-0.219278-0.761431-0.261218-1.092774-0.253906z" style="fill:#ffffff;opacity:.1"/>
 <path d="m7 11.5h4v4l-2 1-2-1z" style="opacity:.2"/>
 <path d="m7 11h4v4l-2 1-2-1z" style="fill:#a0722e"/>
 <path d="m9.030084 2.500366a1.2682434 1.2506621 0 0 0 -0.6641775 0.1668415l-3.7317295 2.1246325a1.2682434 1.2506621 0 0 0 -0.634177 1.083215v4.24954a1.2682434 1.2506621 0 0 0 0.634122 1.083106l3.7317285 2.124742a1.2682434 1.2506621 0 0 0 1.2682435 0l3.731729-2.124742a1.2682434 1.2506621 0 0 0 0.634177 -1.083217v-4.249539a1.2682434 1.2506621 0 0 0 -0.634177 -1.0832155l-3.731729-2.1246322a1.2682434 1.2506621 0 0 0 -0.604177 -0.1668406z" style="opacity:.2"/>
 <path d="m9.030084 2.000366a1.2682434 1.2506621 0 0 0 -0.6641775 0.1668415l-3.7317295 2.1246325a1.2682434 1.2506621 0 0 0 -0.634177 1.083215v4.24954a1.2682434 1.2506621 0 0 0 0.634122 1.083106l3.7317285 2.124742a1.2682434 1.2506621 0 0 0 1.2682435 0l3.731729-2.124742a1.2682434 1.2506621 0 0 0 0.634177 -1.083217v-4.249539a1.2682434 1.2506621 0 0 0 -0.634177 -1.0832155l-3.731729-2.1246322a1.2682434 1.2506621 0 0 0 -0.604177 -0.1668406z" style="fill:#74ba2f"/>
 <path d="M 9.0302735,2 A 1.2682434,1.2506621 0 0 0 8.366211,2.1669922 L 4.633789,4.291992 A 1.2682434,1.2506621 0 0 0 4,5.375 v 0.5 A 1.2682434,1.2506621 0 0 1 4.633789,4.791992 L 8.366211,2.6669922 A 1.2682434,1.2506621 0 0 1 9.0302735,2.5 1.2682434,1.2506621 0 0 1 9.633789,2.6669922 L 13.366211,4.791992 A 1.2682434,1.2506621 0 0 1 14,5.875 v -0.5 A 1.2682434,1.2506621 0 0 0 13.366211,4.291992 L 9.633789,2.1669922 A 1.2682434,1.2506621 0 0 0 9.0302735,2 Z" style="fill:#ffffff;opacity:.2"/>
</svg>

<svg xmlns="http://www.w3.org/2000/svg" width="24" height="24" version="1.1" viewBox="0 0 24 24">
 <path style="opacity:0.2" d="m 11.952441,10.500769 c -0.331565,0.0074 -0.639743,0.05578 -1.002941,0.256249 l -8.1611068,4.504685 c -0.3634882,0.200636 -0.7436916,0.579512 -0.7855384,1.148437 -0.041847,0.568926 0.38389,1.106423 0.7812922,1.325781 l 8.169599,4.509372 c 0.39744,0.219377 0.762054,0.261395 1.093809,0.253906 0.331755,-0.0075 0.639684,-0.05574 1.002942,-0.256249 l 8.161106,-4.504686 c 0.363222,-0.20049 0.743653,-0.579288 0.785539,-1.148437 0.04189,-0.569148 -0.384112,-1.106544 -0.781293,-1.32578 L 13.04625,10.754675 c -0.397261,-0.219278 -0.761616,-0.261218 -1.09296,-0.253906 z"/>
 <path style="fill:#197236" d="m 11.952441,10.000769 c -0.331565,0.0074 -0.639743,0.05578 -1.002941,0.256249 l -8.1611068,4.504685 c -0.3634882,0.200636 -0.7436916,0.579512 -0.7855384,1.148437 -0.041847,0.568926 0.38389,1.106423 0.7812922,1.325781 l 8.169599,4.509372 c 0.39744,0.219377 0.762054,0.261395 1.093809,0.253906 0.331755,-0.0075 0.639684,-0.05574 1.002942,-0.25625 l 8.161106,-4.504685 c 0.363222,-0.20049 0.743653,-0.579288 0.785539,-1.148437 0.04189,-0.569148 -0.384112,-1.106544 -0.781293,-1.32578 L 13.04625,10.254675 C 12.648989,10.035397 12.284634,9.993457 11.95329,10.000769 Z"/>
 <path style="opacity:0.1;fill:#ffffff" d="m 11.952149,10.000977 c -0.331566,0.0074 -0.639731,0.05539 -1.00293,0.255859 l -8.161133,4.504883 c -0.3634882,0.200636 -0.7433095,0.579512 -0.7851563,1.148437 -0.00797,0.108396 0.00578,0.214228 0.02832,0.318359 0.1002117,-0.468145 0.4338007,-0.788489 0.756836,-0.966796 l 8.1611333,-4.504883 c 0.363198,-0.20047 0.671364,-0.248475 1.00293,-0.255859 h 9.99e-4 c 0.331344,-0.0073 0.695513,0.03463 1.092774,0.253906 l 8.169921,4.508789 c 0.321506,0.177465 0.657109,0.565313 0.752929,1.007812 0.01256,-0.05864 0.02366,-0.1183 0.02832,-0.18164 0.04189,-0.569149 -0.384069,-1.106936 -0.78125,-1.326172 L 13.045899,10.254883 C 12.648637,10.035605 12.284468,9.993665 11.953125,10.000977 Z"/>
 <path style="opacity:0.2" d="m 7,11.5 h 4 v 4 l -2,1 -2,-1 z"/>
 <path style="fill:#a0722e" d="m 7,11 h 4 v 4 L 9,16 7,15 Z"/>
 <path style="opacity:0.2" d="M 9.030084,2.500366 A 1.2682434,1.2506621 0 0 0 8.3659065,2.6672075 L 4.634177,4.79184 A 1.2682434,1.2506621 0 0 0 4,5.875055 v 4.24954 a 1.2682434,1.2506621 0 0 0 0.634122,1.083106 l 3.7317285,2.124742 a 1.2682434,1.2506621 0 0 0 1.2682435,0 l 3.731729,-2.124742 A 1.2682434,1.2506621 0 0 0 14,10.124484 V 5.874945 A 1.2682434,1.2506621 0 0 0 13.365823,4.7917295 L 9.634094,2.6670973 A 1.2682434,1.2506621 0 0 0 9.029917,2.5002567 Z"/>
 <path style="fill:#74ba2f" d="M 9.030084,2.000366 A 1.2682434,1.2506621 0 0 0 8.3659065,2.1672075 L 4.634177,4.29184 A 1.2682434,1.2506621 0 0 0 4,5.375055 v 4.24954 a 1.2682434,1.2506621 0 0 0 0.634122,1.083106 l 3.7317285,2.124742 a 1.2682434,1.2506621 0 0 0 1.2682435,0 l 3.731729,-2.124742 A 1.2682434,1.2506621 0 0 0 14,9.624484 V 5.374945 A 1.2682434,1.2506621 0 0 0 13.365823,4.2917295 L 9.634094,2.1670973 A 1.2682434,1.2506621 0 0 0 9.029917,2.0002567 Z"/>
 <path style="opacity:0.2;fill:#ffffff" d="M 9.0302735,2 A 1.2682434,1.2506621 0 0 0 8.366211,2.1669922 L 4.633789,4.291992 A 1.2682434,1.2506621 0 0 0 4,5.375 v 0.5 A 1.2682434,1.2506621 0 0 1 4.633789,4.791992 L 8.366211,2.6669922 A 1.2682434,1.2506621 0 0 1 9.0302735,2.5 1.2682434,1.2506621 0 0 1 9.633789,2.6669922 L 13.366211,4.791992 A 1.2682434,1.2506621 0 0 1 14,5.875 v -0.5 A 1.2682434,1.2506621 0 0 0 13.366211,4.291992 L 9.633789,2.1669922 A 1.2682434,1.2506621 0 0 0 9.0302735,2 Z"/>
</svg>
